flaticon/web-design/loading.svg

<svg xmlns="http://www.w3.org/2000/svg" width="32" height="32" viewBox="0 0 24 24">
    <path d="M 23.625 18.640625 L 23.199219 18.640625 L 23.199219 1.777344 C 23.199219 1.570312 23.03125 1.402344 22.824219 1.402344 L 1.175781 1.402344 C 0.96875 1.402344 0.800781 1.570312 0.800781 1.777344 L 0.800781 18.640625 L 0.375 18.640625 C 0.167969 18.640625 0 18.808594 0 19.015625 L 0 20.71875 C 0 21.753906 0.84375 22.597656 1.878906 22.597656 L 22.121094 22.597656 C 23.15625 22.597656 24 21.753906 24 20.71875 L 24 19.015625 C 24 18.808594 23.832031 18.640625 23.625 18.640625 Z M 1.554688 2.15625 L 22.445312 2.15625 L 22.445312 3.007812 L 1.554688 3.007812 Z M 1.554688 3.757812 L 22.445312 3.757812 L 22.445312 18.640625 L 1.554688 18.640625 Z M 13.628906 19.390625 L 13.628906 20.242188 L 10.371094 20.242188 L 10.371094 19.390625 Z M 23.25 20.71875 C 23.25 21.339844 22.742188 21.84375 22.121094 21.84375 L 1.878906 21.84375 C 1.257812 21.84375 0.75 21.339844 0.75 20.71875 L 0.75 19.390625 L 9.621094 19.390625 L 9.621094 20.617188 C 9.621094 20.824219 9.789062 20.992188 9.996094 20.992188 L 14.003906 20.992188 C 14.210938 20.992188 14.378906 20.824219 14.378906 20.617188 L 14.378906 19.390625 L 23.25 19.390625 Z M 23.25 20.71875"/>
    <path d="M20.820312 20.644531L16.410156 20.644531C16.203125 20.644531 16.035156 20.8125 16.035156 21.019531 16.035156 21.226562 16.203125 21.394531 16.410156 21.394531L20.820312 21.394531C21.027344 21.394531 21.195312 21.226562 21.195312 21.019531 21.195312 20.8125 21.027344 20.644531 20.820312 20.644531zM7.589844 20.644531L3.179688 20.644531C2.972656 20.644531 2.804688 20.8125 2.804688 21.019531 2.804688 21.226562 2.972656 21.394531 3.179688 21.394531L7.589844 21.394531C7.796875 21.394531 7.964844 21.226562 7.964844 21.019531 7.964844 20.8125 7.796875 20.644531 7.589844 20.644531zM17.90625 12.59375L16.355469 12.175781C16.261719 12.152344 16.15625 12.164062 16.070312 12.214844 15.984375 12.265625 15.921875 12.347656 15.898438 12.441406 15.714844 13.125 15.351562 13.75 14.851562 14.25 14.707031 14.398438 14.707031 14.636719 14.851562 14.78125L15.984375 15.914062C16.058594 15.988281 16.15625 16.027344 16.25 16.027344 16.347656 16.027344 16.445312 15.988281 16.515625 15.914062 17.3125 15.121094 17.882812 14.132812 18.171875 13.050781 18.226562 12.851562 18.105469 12.644531 17.90625 12.59375zM16.242188 15.109375L15.640625 14.507812C16.019531 14.058594 16.316406 13.546875 16.511719 12.996094L17.335938 13.21875C17.101562 13.910156 16.726562 14.554688 16.242188 15.109375zM9.148438 8.015625L8.015625 6.882812C7.867188 6.734375 7.628906 6.734375 7.484375 6.882812 6.6875 7.675781 6.117188 8.664062 5.828125 9.746094 5.773438 9.945312 5.894531 10.152344 6.09375 10.207031L7.644531 10.621094C7.675781 10.628906 7.707031 10.632812 7.742188 10.632812 7.804688 10.632812 7.871094 10.617188 7.929688 10.582031 8.015625 10.53125 8.078125 10.449219 8.101562 10.355469 8.285156 9.671875 8.648438 9.046875 9.148438 8.546875 9.292969 8.398438 9.292969 8.160156 9.148438 8.015625zM7.488281 9.800781L6.664062 9.578125C6.898438 8.886719 7.273438 8.242188 7.757812 7.6875L8.359375 8.292969C7.980469 8.738281 7.683594 9.25 7.488281 9.800781zM17.535156 8.203125C17.429688 8.023438 17.199219 7.960938 17.019531 8.066406L15.632812 8.867188C15.542969 8.917969 15.480469 9 15.457031 9.097656 15.429688 9.191406 15.445312 9.296875 15.492188 9.382812 15.847656 9.992188 16.035156 10.691406 16.035156 11.398438 16.035156 11.605469 16.203125 11.773438 16.410156 11.773438L18.011719 11.773438C18.21875 11.773438 18.386719 11.605469 18.386719 11.398438 18.386719 10.277344 18.09375 9.171875 17.535156 8.203125zM16.769531 11.023438C16.722656 10.4375 16.570312 9.867188 16.320312 9.339844L17.058594 8.910156C17.382812 9.570312 17.574219 10.289062 17.625 11.023438zM16.515625 6.882812C15.722656 6.085938 14.734375 5.515625 13.652344 5.226562 13.453125 5.171875 13.246094 5.292969 13.195312 5.492188L12.777344 7.042969C12.753906 7.136719 12.765625 7.242188 12.816406 7.328125 12.867188 7.414062 12.949219 7.476562 13.042969 7.503906 13.726562 7.683594 14.351562 8.046875 14.851562 8.546875 14.925781 8.621094 15.023438 8.65625 15.117188 8.65625 15.214844 8.65625 15.308594 8.621094 15.382812 8.546875L16.515625 7.414062C16.664062 7.265625 16.664062 7.027344 16.515625 6.882812zM15.105469 7.761719C14.660156 7.378906 14.148438 7.082031 13.597656 6.886719L13.820312 6.0625C14.511719 6.300781 15.15625 6.671875 15.710938 7.15625zM12 5.011719C10.878906 5.011719 9.773438 5.304688 8.804688 5.867188 8.625 5.96875 8.5625 6.199219 8.667969 6.378906L9.46875 7.765625C9.519531 7.855469 9.601562 7.917969 9.699219 7.941406 9.730469 7.953125 9.761719 7.957031 9.796875 7.957031 9.859375 7.957031 9.925781 7.9375 9.984375 7.90625 10.59375 7.550781 11.292969 7.367188 12 7.367188 12.207031 7.367188 12.375 7.195312 12.375 6.988281L12.375 5.386719C12.375 5.179688 12.207031 5.011719 12 5.011719zM11.625 6.628906C11.039062 6.675781 10.46875 6.828125 9.941406 7.078125L9.511719 6.339844C10.171875 6.015625 10.890625 5.824219 11.625 5.773438zM13.601562 12.226562C12.953125 12.226562 12.425781 12.753906 12.425781 13.402344 12.425781 14.050781 12.953125 14.582031 13.601562 14.582031 14.253906 14.582031 14.78125 14.050781 14.78125 13.402344 14.78125 12.753906 14.253906 12.226562 13.601562 12.226562zM13.601562 13.828125C13.367188 13.828125 13.175781 13.636719 13.175781 13.402344 13.175781 13.167969 13.367188 12.976562 13.601562 12.976562 13.839844 12.976562 14.027344 13.167969 14.027344 13.402344 14.027344 13.636719 13.839844 13.828125 13.601562 13.828125zM10.195312 8.820312C9.546875 8.820312 9.019531 9.347656 9.019531 9.996094 9.019531 10.644531 9.546875 11.171875 10.195312 11.171875 10.84375 11.171875 11.375 10.644531 11.375 9.996094 11.375 9.347656 10.84375 8.820312 10.195312 8.820312zM10.195312 10.421875C9.960938 10.421875 9.769531 10.230469 9.769531 9.996094 9.769531 9.761719 9.960938 9.570312 10.195312 9.570312 10.429688 9.570312 10.621094 9.761719 10.621094 9.996094 10.621094 10.230469 10.429688 10.421875 10.195312 10.421875zM14.269531 9.128906C14.125 8.980469 13.886719 8.980469 13.738281 9.128906L9.730469 13.136719C9.582031 13.285156 9.582031 13.523438 9.730469 13.667969 9.804688 13.742188 9.898438 13.777344 9.996094 13.777344 10.09375 13.777344 10.1875 13.742188 10.261719 13.667969L14.269531 9.660156C14.417969 9.511719 14.417969 9.277344 14.269531 9.128906zM15.332031 16.417969L14.53125 15.03125C14.480469 14.945312 14.398438 14.878906 14.300781 14.855469 14.207031 14.828125 14.101562 14.84375 14.015625 14.890625 13.40625 15.246094 12.707031 15.433594 12 15.433594 11.792969 15.433594 11.625 15.601562 11.625 15.808594L11.625 17.410156C11.625 17.617188 11.792969 17.785156 12 17.785156 13.121094 17.785156 14.226562 17.492188 15.195312 16.933594 15.375 16.828125 15.4375 16.597656 15.332031 16.417969zM12.375 17.023438L12.375 16.167969C12.960938 16.121094 13.53125 15.96875 14.058594 15.71875L14.488281 16.457031C13.828125 16.78125 13.109375 16.972656 12.375 17.023438zM11.183594 15.46875C11.132812 15.382812 11.050781 15.320312 10.957031 15.296875 10.273438 15.113281 9.648438 14.753906 9.148438 14.25 9 14.105469 8.761719 14.105469 8.617188 14.25L7.484375 15.382812C7.335938 15.53125 7.335938 15.769531 7.484375 15.917969 8.277344 16.710938 9.265625 17.28125 10.347656 17.570312 10.378906 17.578125 10.410156 17.582031 10.445312 17.582031 10.609375 17.582031 10.761719 17.472656 10.804688 17.304688L11.222656 15.753906C11.246094 15.660156 11.234375 15.558594 11.183594 15.46875zM10.179688 16.734375C9.488281 16.5 8.84375 16.125 8.289062 15.640625L8.894531 15.039062C9.339844 15.417969 9.851562 15.714844 10.402344 15.910156zM8.507812 13.414062C8.152344 12.804688 7.964844 12.109375 7.964844 11.398438 7.964844 11.191406 7.796875 11.023438 7.589844 11.023438L5.988281 11.023438C5.78125 11.023438 5.613281 11.191406 5.613281 11.398438 5.613281 12.519531 5.90625 13.625 6.464844 14.59375 6.535156 14.714844 6.664062 14.78125 6.792969 14.78125 6.855469 14.78125 6.921875 14.765625 6.980469 14.730469L8.367188 13.929688C8.457031 13.878906 8.519531 13.796875 8.542969 13.699219 8.570312 13.605469 8.554688 13.5 8.507812 13.414062zM6.941406 13.886719C6.617188 13.226562 6.425781 12.507812 6.375 11.773438L7.230469 11.773438C7.277344 12.359375 7.429688 12.929688 7.679688 13.457031zM6.941406 13.886719"/>
</svg>

<svg xmlns="http://www.w3.org/2000/svg" width="32" height="32" viewBox="0 0 24 24">
    <path d="M23.625 18.64h-.426V1.778a.375.375 0 0 0-.375-.375H1.176a.375.375 0 0 0-.375.375v16.864H.375a.375.375 0 0 0-.375.375v1.703c0 1.035.844 1.879 1.879 1.879H22.12A1.882 1.882 0 0 0 24 20.718v-1.702a.375.375 0 0 0-.375-.375zM1.555 2.157h20.89v.852H1.555zm0 1.602h20.89V18.64H1.555zM13.629 19.39v.851H10.37v-.851zm9.621 1.328c0 .62-.508 1.125-1.129 1.125H1.88A1.129 1.129 0 0 1 .75 20.719V19.39h8.871v1.226c0 .207.168.375.375.375h4.008a.375.375 0 0 0 .375-.375v-1.226h8.871zm0 0"/>
    <path d="M20.82 20.645h-4.41a.375.375 0 0 0 0 .75h4.41a.375.375 0 0 0 0-.75zm0 0M7.59 20.645H3.18a.375.375 0 0 0 0 .75h4.41a.375.375 0 0 0 0-.75zm0 0M17.906 12.594l-1.55-.418a.384.384 0 0 0-.286.039.37.37 0 0 0-.172.226 4.048 4.048 0 0 1-1.046 1.809.38.38 0 0 0 0 .531l1.132 1.133a.367.367 0 0 0 .531 0 6.351 6.351 0 0 0 1.657-2.863.372.372 0 0 0-.266-.457zm-1.664 2.515l-.601-.601c.379-.45.675-.961.87-1.512l.825.223a5.636 5.636 0 0 1-1.094 1.89zm0 0M9.148 8.016L8.016 6.883a.373.373 0 0 0-.532 0 6.351 6.351 0 0 0-1.656 2.863c-.055.2.067.406.266.461l1.55.414a.394.394 0 0 0 .286-.039.37.37 0 0 0 .172-.227 4.048 4.048 0 0 1 1.046-1.808.38.38 0 0 0 0-.531zM7.488 9.8l-.824-.223a5.636 5.636 0 0 1 1.094-1.89l.601.605a4.814 4.814 0 0 0-.87 1.508zm0 0M17.535 8.203a.377.377 0 0 0-.515-.137l-1.387.801a.383.383 0 0 0-.14.516 4.01 4.01 0 0 1 .542 2.015c0 .207.168.375.375.375h1.602a.375.375 0 0 0 .375-.375 6.404 6.404 0 0 0-.852-3.195zm-.765 2.82a4.828 4.828 0 0 0-.45-1.683l.739-.43c.324.66.515 1.38.566 2.113zm0 0M16.516 6.883a6.351 6.351 0 0 0-2.864-1.656.372.372 0 0 0-.457.265l-.418 1.551a.384.384 0 0 0 .04.285c.05.086.132.149.226.176.684.18 1.309.543 1.809 1.043a.376.376 0 0 0 .53 0l1.134-1.133a.373.373 0 0 0 0-.531zm-1.41.879a4.75 4.75 0 0 0-1.508-.875l.222-.824c.692.238 1.336.609 1.89 1.093zm0 0M12 5.012a6.368 6.368 0 0 0-3.195.855.372.372 0 0 0-.137.512l.8 1.387a.36.36 0 0 0 .231.175.27.27 0 0 0 .098.016.41.41 0 0 0 .187-.05A4.006 4.006 0 0 1 12 7.366a.378.378 0 0 0 .375-.379V5.387A.375.375 0 0 0 12 5.012zm-.375 1.617c-.586.047-1.156.2-1.684.45l-.43-.74a5.685 5.685 0 0 1 2.114-.566zm0 0M13.602 12.227a1.177 1.177 0 1 0 .002 2.354 1.177 1.177 0 0 0-.002-2.354zm0 1.601a.427.427 0 1 1 .002-.853.427.427 0 0 1-.002.853zm0 0M10.195 8.82a1.177 1.177 0 1 0 .003 2.354 1.177 1.177 0 0 0-.003-2.354zm0 1.602a.427.427 0 0 1 0-.852.427.427 0 0 1 0 .852zm0 0M14.27 9.129a.373.373 0 0 0-.532 0L9.73 13.137a.373.373 0 0 0 0 .531.37.37 0 0 0 .266.11.37.37 0 0 0 .266-.11L14.27 9.66a.373.373 0 0 0 0-.531zm0 0M15.332 16.418l-.8-1.387a.383.383 0 0 0-.516-.14 4.01 4.01 0 0 1-2.016.543.375.375 0 0 0-.375.375v1.601c0 .207.168.375.375.375a6.404 6.404 0 0 0 3.195-.851.377.377 0 0 0 .137-.516zm-2.957.605v-.855a4.828 4.828 0 0 0 1.684-.45l.43.739a5.685 5.685 0 0 1-2.114.566zm0 0M11.184 15.469a.37.37 0 0 0-.227-.172 4.012 4.012 0 0 1-1.809-1.047.38.38 0 0 0-.53 0l-1.134 1.133a.377.377 0 0 0 0 .535 6.38 6.38 0 0 0 2.864 1.652.37.37 0 0 0 .457-.266l.418-1.55a.387.387 0 0 0-.04-.285zm-1.004 1.265a5.636 5.636 0 0 1-1.89-1.093l.605-.602c.445.379.957.676 1.507.871zm0 0M8.508 13.414a3.999 3.999 0 0 1-.543-2.016.375.375 0 0 0-.375-.375H5.988a.375.375 0 0 0-.375.375c0 1.122.293 2.227.852 3.196a.38.38 0 0 0 .515.136l1.387-.8a.383.383 0 0 0 .14-.516zm-1.567.473a5.685 5.685 0 0 1-.566-2.114h.855c.047.586.2 1.157.45 1.684zm0 0"/>
</svg>
